X: 21
T:Pretty Peggy
M:4/4
L:1/8
R:Reel
K:D
A|"D"d2 fd AFDF|"D"d2 fd "A"e/f/g fe|"D"d2 fd AFDF|"G"GEFD "A" CEE:||!
A|"D"F/E/D AD BDAD|"G"G/F/E F/E/D "A"CEEG|"D"F/E/D AD BDAD|"A"G/F/E F/E/
D "D"A,DDA|!
"D"F/E/D AD BDAD|"G"G/F/E F/E/D "A"CEEG|"Bm"FAdf "G"ecdB|"A"AFGE "D"FDD|
|
